icons/font-size.svg

<svg xmlns="http://www.w3.org/2000/svg" width="24" height="24" fill="none"><g clip-path="url(#a)"><g><path fill="#121212" d="M11.246 15H4.754L2.754 20H0.599998L7 4H9L15.4 20H13.246L11.246 15ZM10.446 13L8 6.885L5.554 13H10.446ZM21 12.535V12H23V20H21V19.465C20.3919 19.8157 19.7022 20.0002 19.0002 20C18.2982 19.9998 17.6086 19.8148 17.0008 19.4637C16.3929 19.1125 15.8882 18.6076 15.5372 17.9996C15.1863 17.3916 15.0016 16.702 15.0016 16C15.0016 15.298 15.1863 14.6084 15.5372 14.0004C15.8882 13.3924 16.3929 12.8875 17.0008 12.5363C17.6086 12.1852 18.2982 12.0002 19.0002 12C19.7022 11.9998 20.3919 12.1843 21 12.535ZM19 18C19.5304 18 20.0391 17.7893 20.4142 17.4142C20.7893 17.0391 21 16.5304 21 16C21 15.4696 20.7893 14.9609 20.4142 14.5858C20.0391 14.2107 19.5304 14 19 14C18.4696 14 17.9609 14.2107 17.5858 14.5858C17.2107 14.9609 17 15.4696 17 16C17 16.5304 17.2107 17.0391 17.5858 17.4142C17.9609 17.7893 18.4696 18 19 18Z"/></g></g><defs><clipPath id="a"><rect width="24" height="24" fill="white"/></clipPath></defs></svg>

<svg width="24" height="24" fill="none" xmlns="http://www.w3.org/2000/svg"><g clip-path="url(#a)"><path d="M11.246 15H4.754l-2 5H.6L7 4h2l6.4 16h-2.154l-2-5Zm-.8-2L8 6.885 5.554 13h4.892ZM21 12.535V12h2v8h-2v-.535a4 4 0 1 1 0-6.93ZM19 18a2 2 0 1 0 0-4 2 2 0 0 0 0 4Z" /></g><defs><clipPath id="a"><path fill="#fff" d="M0 0h24v24H0z"/></clipPath></defs></svg>
